Numix-Light/16x16/status/system-devices-panel.svg

<?xml version="1.0" encoding="UTF-8" standalone="no"?>
<svg
   xmlns:dc="http://purl.org/dc/elements/1.1/"
   xmlns:cc="http://creativecommons.org/ns#"
   xmlns:rdf="http://www.w3.org/1999/02/22-rdf-syntax-ns#"
   xmlns:svg="http://www.w3.org/2000/svg"
   xmlns="http://www.w3.org/2000/svg"
   xmlns:sodipodi="http://sodipodi.sourceforge.net/DTD/sodipodi-0.dtd"
   xmlns:inkscape="http://www.inkscape.org/namespaces/inkscape"
   width="16"
   height="16"
   viewBox="0 0 16 16"
   id="svg2"
   version="1.1"
   inkscape:version="0.48.5 r10040"
   sodipodi:docname="system-devices-panel.svg">
  <metadata
     id="metadata42">
    <rdf:RDF>
      <cc:Work
         rdf:about="">
        <dc:format>image/svg+xml</dc:format>
        <dc:type
           rdf:resource="http://purl.org/dc/dcmitype/StillImage" />
      </cc:Work>
    </rdf:RDF>
  </metadata>
  <sodipodi:namedview
     pagecolor="#ffffff"
     bordercolor="#666666"
     borderopacity="1"
     objecttolerance="10"
     gridtolerance="10"
     guidetolerance="10"
     inkscape:pageopacity="0"
     inkscape:pageshadow="2"
     inkscape:window-width="1280"
     inkscape:window-height="969"
     id="namedview40"
     showgrid="false"
     inkscape:zoom="14.75"
     inkscape:cx="16.117514"
     inkscape:cy="0.6746007"
     inkscape:window-x="0"
     inkscape:window-y="0"
     inkscape:window-maximized="1"
     inkscape:current-layer="svg2" />
  <defs
     id="defs4">
    <clipPath
       id="clip1">
      <rect
         width="16"
         height="16"
         id="rect7" />
    </clipPath>
    <filter
       width="100%"
       x="0"
       y="0"
       height="100%"
       filterUnits="objectBoundingBox"
       id="alpha">
      <feColorMatrix
         values="0 0 0 0 1 0 0 0 0 1 0 0 0 0 1 0 0 0 1 0"
         in="SourceGraphic"
         type="matrix"
         id="feColorMatrix10" />
    </filter>
    <g
       style="clip-path:url(#clip1)"
       id="surface6"
       clip-path="url(#clip1)">
      <path
         style="fill:#000"
         d="M 7.910156 2.910156 C 7.5625 2.941406 7.269531 3.273438 7.273438 3.625 L 7.273438 7.894531 C 7.273438 8.265625 7.613281 8.605469 7.984375 8.605469 C 8.355469 8.605469 8.695312 8.265625 8.695312 7.894531 L 8.695312 3.625 C 8.699219 3.25 8.355469 2.902344 7.980469 2.910156 C 7.957031 2.90625 7.933594 2.90625 7.910156 2.910156 Z M 5.480469 4.644531 C 3.945312 5.777344 2.464844 7.292969 2.675781 8.925781 C 2.777344 9.234375 3.109375 9.445312 3.433594 9.40625 C 3.753906 9.367188 4.027344 9.078125 4.050781 8.757812 C 4.199219 7.359375 4.980469 6.429688 6.015625 5.941406 Z M 10.476562 4.65625 L 9.941406 5.953125 C 10.976562 6.441406 11.757812 7.371094 11.90625 8.769531 C 11.929688 9.089844 12.203125 9.378906 12.523438 9.417969 C 12.847656 9.457031 13.179688 9.246094 13.28125 8.9375 C 13.359375 7.171875 11.722656 5.273438 10.476562 4.65625 Z "
         id="path13" />
      <path
         style="fill:#000"
         d="M 5.546875 4.636719 C 5.4375 4.640625 5.328125 4.671875 5.230469 4.726562 C 3.8125 5.503906 3.015625 6.761719 2.753906 8.109375 L 4.175781 8.109375 C 4.398438 7.257812 4.953125 6.488281 5.910156 5.964844 C 6.203125 5.808594 6.351562 5.472656 6.261719 5.152344 C 6.175781 4.835938 5.878906 4.621094 5.546875 4.636719 Z M 10.238281 4.636719 C 9.933594 4.671875 9.6875 4.898438 9.628906 5.199219 C 9.570312 5.5 9.710938 5.804688 9.976562 5.953125 C 10.949219 6.539062 11.511719 7.296875 11.761719 8.109375 L 13.179688 8.109375 C 12.890625 6.820312 12.097656 5.589844 10.703125 4.75 C 10.566406 4.65625 10.402344 4.617188 10.238281 4.636719 Z M 3.3125 11.6875 C 3.3125 11.691406 3.308594 11.695312 3.3125 11.699219 L 4.96875 11.699219 C 4.964844 11.695312 4.960938 11.691406 4.957031 11.6875 Z M 11.035156 11.6875 C 11.03125 11.691406 11.027344 11.695312 11.023438 11.699219 L 12.691406 11.699219 C 12.691406 11.695312 12.691406 11.691406 12.691406 11.6875 Z M 7.421875 14.515625 C 7.597656 14.53125 7.773438 14.539062 7.957031 14.539062 C 8.140625 14.539062 8.324219 14.53125 8.5 14.515625 Z "
         id="path15" />
    </g>
    <mask
       id="mask0">
      <g
         style="filter:url(#alpha)"
         id="g18">
        <rect
           width="16"
           x="0"
           y="0"
           height="16"
           style="fill:#000;fill-opacity:.302"
           id="rect20" />
      </g>
    </mask>
  </defs>
  <path
     style="fill:#000000;fill-opacity:0.30196078;fill-rule:evenodd;stroke:none"
     d="m 7,1.9999996 0,7 2,0 0,-7 -2,0 z m -2,0.75 C 2.9266153,3.8361199 1.5,5.9970758 1.5,8.4999996 1.5,12.08985 4.4101491,15 8,15 8.3425315,15 8.6717825,14.9573 9,14.90625 l 0,-1.875 c -0.3236218,0.07164 -0.655392,0.125 -1,0.125 -2.5641792,0 -4.65625,-2.09207 -4.65625,-4.6562504 C 3.34375,7.0893837 4.0070775,5.8515113 5,4.9999995 L 5,2.7499996 z m 6,0 0,2.2499999 2.46875,0 C 12.856693,4.054056 12.003347,3.2755919 11,2.7499996 z m 0,3.25 0,0.53125 0,0.9375 0,0.53125 0.53125,0 1.46875,0 1.46875,0 C 14.765613,7.9999996 15,7.765613 15,7.4687496 l 0,-0.9375 c 0,-0.2968634 -0.234387,-0.53125 -0.53125,-0.53125 l -1.46875,0 -1.46875,0 -0.53125,0 z m 0,3 0,0.53125 L 11,10.46875 11,11 11.53125,11 13,11 14.46875,11 C 14.765613,11 15,10.765613 15,10.46875 l 0,-0.9375004 c 0,-0.2968634 -0.234387,-0.53125 -0.53125,-0.53125 l -1.46875,0 -1.46875,0 -0.53125,0 z M 11,12 l 0,0.53125 0,0.9375 L 11,14 11.53125,14 13,14 14.46875,14 C 14.765613,14 15,13.765613 15,13.46875 l 0,-0.9375 C 15,12.234387 14.765613,12 14.46875,12 L 13,12 11.53125,12 11,12 z"
     id="path3161"
     inkscape:connector-curvature="0" />
  <path
     inkscape:connector-curvature="0"
     style="fill:#353535;fill-opacity:1;fill-rule:evenodd;stroke:none"
     d="M 5,1.7499996 C 2.9266153,2.8361199 1.5,4.9970758 1.5,7.4999996 1.5,11.08985 4.4101491,14 8,14 8.3425315,14 8.6717825,13.9573 9,13.90625 l 0,-1.875 c -0.3236218,0.07164 -0.655392,0.125 -1,0.125 -2.5641792,0 -4.65625,-2.09207 -4.65625,-4.6562504 0,-1.4106159 0.6633275,-2.6484884 1.65625,-3.5 l 0,-2.25 z m 6,0 0,2.25 2.46875,0 C 12.856693,3.054056 12.003347,2.2755919 11,1.7499996 z"
     id="path3049" />
  <rect
     style="fill:#353535;fill-opacity:1;fill-rule:evenodd;stroke:none"
     id="rect3060"
     width="2"
     height="7"
     x="7"
     y="0.99999964" />
  <path
     inkscape:connector-curvature="0"
     style="fill:#353535;fill-opacity:1;fill-rule:evenodd;stroke:none"
     d="m 11,11 0,0.53125 0,0.9375 L 11,13 11.53125,13 13,13 14.46875,13 C 14.765613,13 15,12.765613 15,12.46875 l 0,-0.9375 C 15,11.234387 14.765613,11 14.46875,11 L 13,11 11.53125,11 11,11 z"
     id="rect3067" />
  <path
     inkscape:connector-curvature="0"
     style="fill:#353535;fill-opacity:1;fill-rule:evenodd;stroke:none"
     d="m 11,7.9999996 0,0.53125 0,0.9375 0,0.53125 0.53125,0 1.46875,0 1.46875,0 C 14.765613,9.9999996 15,9.765613 15,9.4687496 l 0,-0.9375 c 0,-0.2968634 -0.234387,-0.53125 -0.53125,-0.53125 l -1.46875,0 -1.46875,0 -0.53125,0 z"
     id="rect3067-7" />
  <path
     inkscape:connector-curvature="0"
     style="fill:#353535;fill-opacity:1;fill-rule:evenodd;stroke:none"
     d="m 11,4.9999995 0,0.5312501 0,0.9375 0,0.53125 0.53125,0 1.46875,0 1.46875,0 C 14.765613,6.9999996 15,6.765613 15,6.4687496 l 0,-0.9375 C 15,5.2343862 14.765613,4.9999995 14.46875,4.9999995 l -1.46875,0 -1.46875,0 -0.53125,0 z"
     id="rect3067-7-0" />
</svg>

<?xml version="1.0" encoding="UTF-8" standalone="no"?>
<svg
   xmlns:dc="http://purl.org/dc/elements/1.1/"
   xmlns:cc="http://creativecommons.org/ns#"
   xmlns:rdf="http://www.w3.org/1999/02/22-rdf-syntax-ns#"
   xmlns:svg="http://www.w3.org/2000/svg"
   xmlns="http://www.w3.org/2000/svg"
   xmlns:sodipodi="http://sodipodi.sourceforge.net/DTD/sodipodi-0.dtd"
   xmlns:inkscape="http://www.inkscape.org/namespaces/inkscape"
   width="16"
   height="16"
   viewBox="0 0 16 16"
   id="svg2"
   version="1.1"
   inkscape:version="0.48.5 r10040"
   sodipodi:docname="system-devices-panel.svg">
  <metadata
     id="metadata42">
    <rdf:RDF>
      <cc:Work
         rdf:about="">
        <dc:format>image/svg+xml</dc:format>
        <dc:type
           rdf:resource="http://purl.org/dc/dcmitype/StillImage" />
      </cc:Work>
    </rdf:RDF>
  </metadata>
  <sodipodi:namedview
     pagecolor="#ffffff"
     bordercolor="#666666"
     borderopacity="1"
     objecttolerance="10"
     gridtolerance="10"
     guidetolerance="10"
     inkscape:pageopacity="0"
     inkscape:pageshadow="2"
     inkscape:window-width="1280"
     inkscape:window-height="969"
     id="namedview40"
     showgrid="true"
     inkscape:zoom="16"
     inkscape:cx="14.017067"
     inkscape:cy="9.5123219"
     inkscape:window-x="0"
     inkscape:window-y="0"
     inkscape:window-maximized="1"
     inkscape:current-layer="svg2"
     showguides="true"
     inkscape:guide-bbox="true">
    <inkscape:grid
       type="xygrid"
       id="grid3019" />
  </sodipodi:namedview>
  <defs
     id="defs4">
    <clipPath
       id="clip1">
      <rect
         width="16"
         height="16"
         id="rect7" />
    </clipPath>
    <filter
       width="100%"
       x="0"
       y="0"
       height="100%"
       filterUnits="objectBoundingBox"
       id="alpha">
      <feColorMatrix
         values="0 0 0 0 1 0 0 0 0 1 0 0 0 0 1 0 0 0 1 0"
         in="SourceGraphic"
         type="matrix"
         id="feColorMatrix10" />
    </filter>
    <g
       style="clip-path:url(#clip1)"
       id="surface6"
       clip-path="url(#clip1)">
      <path
         style="fill:#000"
         d="M 7.910156 2.910156 C 7.5625 2.941406 7.269531 3.273438 7.273438 3.625 L 7.273438 7.894531 C 7.273438 8.265625 7.613281 8.605469 7.984375 8.605469 C 8.355469 8.605469 8.695312 8.265625 8.695312 7.894531 L 8.695312 3.625 C 8.699219 3.25 8.355469 2.902344 7.980469 2.910156 C 7.957031 2.90625 7.933594 2.90625 7.910156 2.910156 Z M 5.480469 4.644531 C 3.945312 5.777344 2.464844 7.292969 2.675781 8.925781 C 2.777344 9.234375 3.109375 9.445312 3.433594 9.40625 C 3.753906 9.367188 4.027344 9.078125 4.050781 8.757812 C 4.199219 7.359375 4.980469 6.429688 6.015625 5.941406 Z M 10.476562 4.65625 L 9.941406 5.953125 C 10.976562 6.441406 11.757812 7.371094 11.90625 8.769531 C 11.929688 9.089844 12.203125 9.378906 12.523438 9.417969 C 12.847656 9.457031 13.179688 9.246094 13.28125 8.9375 C 13.359375 7.171875 11.722656 5.273438 10.476562 4.65625 Z "
         id="path13" />
      <path
         style="fill:#000"
         d="M 5.546875 4.636719 C 5.4375 4.640625 5.328125 4.671875 5.230469 4.726562 C 3.8125 5.503906 3.015625 6.761719 2.753906 8.109375 L 4.175781 8.109375 C 4.398438 7.257812 4.953125 6.488281 5.910156 5.964844 C 6.203125 5.808594 6.351562 5.472656 6.261719 5.152344 C 6.175781 4.835938 5.878906 4.621094 5.546875 4.636719 Z M 10.238281 4.636719 C 9.933594 4.671875 9.6875 4.898438 9.628906 5.199219 C 9.570312 5.5 9.710938 5.804688 9.976562 5.953125 C 10.949219 6.539062 11.511719 7.296875 11.761719 8.109375 L 13.179688 8.109375 C 12.890625 6.820312 12.097656 5.589844 10.703125 4.75 C 10.566406 4.65625 10.402344 4.617188 10.238281 4.636719 Z M 3.3125 11.6875 C 3.3125 11.691406 3.308594 11.695312 3.3125 11.699219 L 4.96875 11.699219 C 4.964844 11.695312 4.960938 11.691406 4.957031 11.6875 Z M 11.035156 11.6875 C 11.03125 11.691406 11.027344 11.695312 11.023438 11.699219 L 12.691406 11.699219 C 12.691406 11.695312 12.691406 11.691406 12.691406 11.6875 Z M 7.421875 14.515625 C 7.597656 14.53125 7.773438 14.539062 7.957031 14.539062 C 8.140625 14.539062 8.324219 14.53125 8.5 14.515625 Z "
         id="path15" />
    </g>
    <mask
       id="mask0">
      <g
         style="filter:url(#alpha)"
         id="g18">
        <rect
           width="16"
           x="0"
           y="0"
           height="16"
           style="fill:#000;fill-opacity:.302"
           id="rect20" />
      </g>
    </mask>
  </defs>
  <path
     style="fill:#000000;fill-opacity:0.3019608;fill-rule:evenodd;stroke:none"
     d="M 7,2 7,9 9,9 9,2 7,2 z M 5,2.75 C 2.9266153,3.8361203 1.5,5.9970762 1.5,8.5 1.5,12.08985 4.4101491,15 8,15 c 0.3425315,0 0.6717825,-0.0427 1,-0.09375 l 0,-1.875 c -0.3236218,0.07164 -0.655392,0.125 -1,0.125 C 5.4358208,13.15625 3.34375,11.06418 3.34375,8.5 3.34375,7.0893841 4.0070775,5.8515117 5,5 L 5,2.75 z m 6,0 0,2.25 2.46875,0 C 12.856693,4.0540564 12.003347,3.2755923 11,2.75 z M 11,6 11,6.53125 11,7.46875 11,8 11.53125,8 13,8 14.46875,8 C 14.765613,8 15,7.7656134 15,7.46875 l 0,-0.9375 C 15,6.2343866 14.765613,6 14.46875,6 L 13,6 11.53125,6 11,6 z m 0,3 0,0.53125 0,0.9375 L 11,11 11.53125,11 13,11 14.46875,11 C 14.765613,11 15,10.765613 15,10.46875 l 0,-0.9375 C 15,9.2343866 14.765613,9 14.46875,9 L 13,9 11.53125,9 11,9 z m 0,3 0,0.53125 0,0.9375 L 11,14 11.53125,14 13,14 14.46875,14 C 14.765613,14 15,13.765613 15,13.46875 l 0,-0.9375 C 15,12.234387 14.765613,12 14.46875,12 L 13,12 11.53125,12 11,12 z"
     id="path3161"
     inkscape:connector-curvature="0" />
  <path
     style="fill:#353535;fill-opacity:1;fill-rule:evenodd;stroke:none"
     d="M 5 1.75 C 2.9266153 2.8361203 1.5 4.9970762 1.5 7.5 C 1.5 11.08985 4.4101491 14 8 14 C 8.3425315 14 8.6717825 13.957302 9 13.90625 L 9 12.03125 C 8.6763782 12.10289 8.344608 12.15625 8 12.15625 C 5.4358208 12.15625 3.34375 10.06418 3.34375 7.5 C 3.34375 6.0893841 4.0070775 4.8515117 5 4 L 5 1.75 z M 11 1.75 L 11 4 L 13.46875 4 C 12.856693 3.0540564 12.003347 2.2755923 11 1.75 z "
     id="path3049" />
  <rect
     style="fill:#353535;fill-opacity:1;fill-rule:evenodd;stroke:none"
     id="rect3060"
     width="2"
     height="7"
     x="7"
     y="1" />
  <path
     style="fill:#353535;fill-opacity:1;fill-rule:evenodd;stroke:none"
     d="M 11 11 L 11 11.53125 L 11 12.46875 L 11 13 L 11.53125 13 L 13 13 L 14.46875 13 C 14.765613 13 15 12.765613 15 12.46875 L 15 11.53125 C 15 11.234387 14.765613 11 14.46875 11 L 13 11 L 11.53125 11 L 11 11 z "
     id="rect3067" />
  <path
     style="fill:#353535;fill-opacity:1;fill-rule:evenodd;stroke:none"
     d="M 11 8 L 11 8.53125 L 11 9.46875 L 11 10 L 11.53125 10 L 13 10 L 14.46875 10 C 14.765613 10 15 9.7656134 15 9.46875 L 15 8.53125 C 15 8.2343866 14.765613 8 14.46875 8 L 13 8 L 11.53125 8 L 11 8 z "
     id="rect3067-7" />
  <path
     style="fill:#353535;fill-opacity:1;fill-rule:evenodd;stroke:none"
     d="M 11 5 L 11 5.53125 L 11 6.46875 L 11 7 L 11.53125 7 L 13 7 L 14.46875 7 C 14.765613 7 15 6.7656134 15 6.46875 L 15 5.53125 C 15 5.2343866 14.765613 5 14.46875 5 L 13 5 L 11.53125 5 L 11 5 z "
     id="rect3067-7-0" />
</svg>
